X:90
T:Gan Ainm
R:Reel
S:Jim Mulqueeny, Clare (fiddle).
D:A mysterious tape
H:'c's and 'f's very mobile
Q:400
M:4/4
Z:Bernie Stocks
K:D
|: FDAF GFEG | FDAF GBAG | FDAF GFED |1 FdcA GBAG :|2 FdcA G2FG ||
K:G\
|: A3B (3cBA GB | A3B cdec |1 A3B (3cBA cA | AdcA G2FG :|2 d2cA G2FG | Adde dcAG ||
<end>
<start>
